X:1
T:Redemption
T:D minor, F Major, F minor Hezekiah Moors, 1809
T:Transcribed from Province Harmony, 1809.
T:Isaac Watts, 1709 (Hymn 78, Book 2)            86. 86. (C. M.)
%%score [ 1 2 3 ]
L:1/8
Q:1/4=70
M:2/4
K:F
V:1 treble nm="Tr." snm="Tr."
V:2 treble-8 nm="T." snm="T."
V:3 bass nm="B." snm="B."
V:1
"^Ruefully" A2 F E | D2 E2 | FE DE | F2 z A | F2 A2 | GF ED | (D ^C3) | A2 F E | D2 E2 | FE DE | %10
 F2 z G | A2 B2 | A2 A2 | A4 |:[Q:1/4=120]"^Vivace" A2 A A | A2 c2 | d2 d2 | d3 c/B/ | Ad cB | %19
 Ad c2 | c3 A | F2 AF | G2 A2 | B2 B2 | A3 A | A2 A2 | AG F2 | (F E2) E | F2 ED | F2 G2 | c2 B2 | %31
 A4 :|[K:Ab][M:3/2]"^Grave" z12 | z12 | z12 | z12 | z12 | z12 | z12 | z12 | z12 | z12 | z12 | z12 | %44
 z12 | z12 | z12 ||[K:F][M:2/4] z4[Q:1/4=170] | z4 | z4 | z4 | z4 | z4 | z4 | z4 | z4 | z4 | z4 | %58
 z4 | z4 | z4 | z4 ||[M:6/8][Q:1/4=100]"^Spirituoso" z2 z A3 | F2 A G2 G | A>B c cB A | B2 B A2 G | %66
 F3- F2 A | c>B A A>G F | F>G G G2 A | A>G F G2 c | B3 G3 | A3- A3 |:[M:2/4] z2 F2 | c2 B2 | %74
 A2 F2 | c2 B2 | A3 A | FB AG | F2 G2 | G3 G | A2 A2 | F2 F2 | GA AB | c2 c2 | dc c2 | B2 A2 | %86
 G3 G | AB cd | c2 B2 | A4 :| %90
V:2
"_When the first  parents   of      our      race      Rebelled  and  lost   their      God,           And the  in – fec – tion  of      their     sin     Had" D2 D E | %1
 F2 E2 | DE FG | A2 z A | B2 A2 | BA GF | (F E3) | D2 D E | F2 E2 | DE FG | A2 z B | %11
"_tain – ted      all    our   blood;    In – fi – nite   pi  –  ty  touched  the  heart   Of     the      e    –    ter  –  nal   Son;  De–scen–ding  from the" Af ed | %12
 d2 ^c2 | d4 |: c2 c c | cd cA | B2 B2 | B3 A/G/ | F2 G2 | cf e2 | f3 c | A2 cA | d2 c2 | %23
"_heaven–ly  court,  He      left     his   Father's    throne,  He  left,  He           left     his     Father's throne.                           A      –     side   the" d2 _ed | %24
 dc c2 | AF F2 | FG A2 | (A G2) G | A2 B/c/d | cA de | A2 G2 | F4 :|[K:Ab][M:3/2] z4 z4 (F3 G) | %33
 (A4 G4) F4 | %34
"_Prince of  glo  –  ry    threw  His  most  di – vine  ar–ray, And wrapped his godhead  in   a      veil   Of     our  in  – fe  – rior  clay." c8 c4 | %35
 (A4 B4) A4 | (A2 G6) G4 | (A4 B4) c4 | f8 =e4 | f8 f4 | g8 f4 | (c4 d4) c4 | B8 (A3 B) | %43
 c8 (d2 c2) | B8 (c2 B2) | A8 G4 | F12 ||[K:F][M:2/4] z4 | z4 | z4 | z4 | z4 | z4 | z4 | z4 | z4 | %56
 z4 | z4 | z4 | z4 | z4 | z4 || %62
[M:6/8] z2 z"_To  thee, dear Lord, our  flesh   and  soul   We   joy–ful – ly  re  –  sign;      Blest  Je   –   sus,   take      us     for      thy  own,  For" F3 | %63
 A2 F c2 B | A>G F AB c | d2 d c2 B | A3- A2 F | A>G F c>B A | d>c =B c2 c | %69
"_we   are  doubly,   doubly   thine.                 Thine honor shall for  ev – er   be   The  busi – ness    of  our  days;  For  ev   –  er    shall  our" d>e f e2 c | %70
 d3 e3 | f3- f3 |:[M:2/4] z2 F2 | c2 B2 | A2 F2 | c2 B2 | A3 A | Ad cB | A2 =B2 | c3 c | dc fe | %81
 d2 c2 | %82
"_thankful  tongues Speak  thy  de   –   ser – ved  praise,  Speak  thy  de  –  ser – ved  praise." BA cB | %83
 A2 F2 | BA GA | B2 c2 | d3 e | fd cB | A2 G2 | F4 :| %90
V:3
 D,2 D, ^C, | D,2 A,,2 | D,2 D,2 | D,2 z D, | D,2 D,2 | D,2 G,,2 | A,,4 | D,2 D, ^C, | D,2 A,,2 | %9
 D,2 D,2 | D,2 z E, | F,2 G,2 | A,2 A,,2 | D,4 |: F,2 F, F, | F,2 F,2 | B,,2 B,,2 | B,,3 C, | %18
 D,2 E,2 | F,2 C,2 | F,3 F, | F,2 F,2 | B,2 A,2 | G,2 G,2 | F,3 F, | F,2 F,2 | D,E, F,2 | C,3 C, | %28
 F,2 G,/A,/B, | A,2 G,2 | F,2 C,2 | F,4 :|[K:Ab][M:3/2] z4 z4 F,4 | C,8 F,4 | A,8 A,4 | %35
 F,4 =E,4 F,4 | C,8 C,4 | (F,4 G,4) A,4 | B,8 C4 | F,8 F,4 | C,8 F,4 | F,8 C,4 | E,8 F,4 | %43
 C,8 (B,,2 A,,2) | E,8 (A,2 G,2) | F,8 C,4 | F,12 || %47
[K:F][M:2/4] z2"^Bass Solo – Vivace""_His living power and  dying  love Redeemed unhappy men,  And raised the ru–ins  of   our   race  To   life      and   God  a – gain." F,2 | %48
 F,2 F,2 | F,2 A,2 | B,2 B,2 | A,2 G,2 | F,2 F,2 | G,2 A,2 | !fermata!D,3 C, | F,2 F,2 | G,2 A,2 | %57
 B,2 CB, | A,2 G,2 | F,G, A,B, | C2 C,2 | F,4 ||[M:6/8] z2 z F,3 | F,2 F, C,2 C, | F,2 F, F,G, A, | %65
 G,2 G, C,2 C, | F,3- F,2 F, | F,2 F, F,2 F, | D,2 G, C,2 F, | D,2 D, C,2 A,, | B,,3 C,3 | %71
 F,3- F,3 |:[M:2/4] z2 F,2 | C2 B,2 | A,2 F,2 | C2 B,2 | A,3 A, | F,2 F,2 | D,2 G,2 | C,3 C, | %80
 F,2 F,2 | B,2 A,2 | %82
"______________________________________________\nEdited by B. C. Johnston, 2018\n   1. Grace eighth-notes converted to normal eighth-notes in measures 7, 27, and 28.\n   2. Grace quarter-note converted to normal quarter-note in measure 37, \nTenor\n.\n   2. Measure 42, Bass: second note changed from B to C." G,F, A,G, | %83
 F,2 F,2 | F,2 E,F, | G,2 A,2 | B,3 C | F,G, A,B, | C2 C,2 | F,4 :| %90

